X:16001
T:Parsons farewell
R:Reel
C:Trad. Playford 1650
O:England
Z:Paul Hardy's Session Tunebook 2015 (see www.paulhardy.net). Creative Commons cc by-nc-sa licenced.
M:4/4
L:1/8
Q:1/4=140
K:Am
A2|"Am"c2 A2 A2 Bc|"G"d2 G2 G3 G|"Am"AB c2 B2 A2|"Em"G2E2E2:|
|:e2|"Am"c4 c2 e2|c4 c2 e2|cd e2 cd e2|"G"d2 B2 B4|Bc d2 Bc d2|"Am"c2 A2 ABcd|"Em"e2 dc BA B2|"Am"A6:|

